Numix-Light/16/status/indicator-keyboard-Kk.svg

<?xml version="1.0" encoding="UTF-8" standalone="no"?>
<svg
   xmlns:dc="http://purl.org/dc/elements/1.1/"
   xmlns:cc="http://creativecommons.org/ns#"
   xmlns:rdf="http://www.w3.org/1999/02/22-rdf-syntax-ns#"
   xmlns:svg="http://www.w3.org/2000/svg"
   xmlns="http://www.w3.org/2000/svg"
   xmlns:sodipodi="http://sodipodi.sourceforge.net/DTD/sodipodi-0.dtd"
   xmlns:inkscape="http://www.inkscape.org/namespaces/inkscape"
   viewBox="0 0 16 16"
   id="svg2"
   version="1.1"
   inkscape:version="0.91 r13725"
   sodipodi:docname="indicator-keyboard-Kk.svg">
  <metadata
     id="metadata13">
    <rdf:RDF>
      <cc:Work
         rdf:about="">
        <dc:format>image/svg+xml</dc:format>
        <dc:type
           rdf:resource="http://purl.org/dc/dcmitype/StillImage" />
      </cc:Work>
    </rdf:RDF>
  </metadata>
  <defs
     id="defs11" />
  <sodipodi:namedview
     pagecolor="#ffffff"
     bordercolor="#666666"
     borderopacity="1"
     objecttolerance="10"
     gridtolerance="10"
     guidetolerance="10"
     inkscape:pageopacity="0"
     inkscape:pageshadow="2"
     inkscape:window-width="640"
     inkscape:window-height="480"
     id="namedview9"
     showgrid="false"
     inkscape:zoom="14.75"
     inkscape:cx="8"
     inkscape:cy="8"
     inkscape:window-x="65"
     inkscape:window-y="24"
     inkscape:window-maximized="0"
     inkscape:current-layer="svg2" />
  <path
     style="fill:#353535;fill-opacity:1"
     d="M 1.5996094 0 C 0.71320937 2.9605947e-16 0 0.71320937 0 1.5996094 L 0 14.400391 C 2.9605947e-16 15.286791 0.71320937 16 1.5996094 16 L 14.400391 16 C 15.286791 16 16 15.286791 16 14.400391 L 16 1.5996094 C 16 0.71320937 15.286791 0 14.400391 0 L 1.5996094 0 z M 9.5058594 4.5078125 L 9.5058594 8.9355469 C 9.6558594 8.7915469 9.8237658 8.6274063 10.009766 8.4414062 C 10.195766 8.2554063 10.382359 8.0650469 10.568359 7.8730469 C 10.760359 7.6810469 10.939422 7.4964063 11.107422 7.3164062 C 11.275422 7.1364062 11.419062 6.9778438 11.539062 6.8398438 L 12.242188 6.8398438 C 12.104188 6.9838437 11.947437 7.1442188 11.773438 7.3242188 C 11.599437 7.5042188 11.416609 7.6945781 11.224609 7.8925781 C 11.038609 8.0845781 10.852016 8.2729844 10.666016 8.4589844 L 10.162109 8.9628906 C 10.348109 9.0888906 10.545859 9.2512188 10.755859 9.4492188 C 10.971859 9.6472188 11.182719 9.863656 11.386719 10.097656 C 11.596719 10.325656 11.792656 10.562594 11.972656 10.808594 C 12.158656 11.048594 12.313453 11.276188 12.439453 11.492188 L 11.746094 11.492188 C 11.602094 11.252188 11.437953 11.017062 11.251953 10.789062 C 11.071953 10.555063 10.879781 10.336813 10.675781 10.132812 C 10.477781 9.9288122 10.276266 9.7422187 10.072266 9.5742188 C 9.8742658 9.4062187 9.6858594 9.2663438 9.5058594 9.1523438 L 9.5058594 11.492188 L 8.9199219 11.492188 L 8.9199219 4.6152344 L 9.5058594 4.5078125 z M 3.5605469 5.2558594 L 4.171875 5.2558594 L 4.171875 8.1621094 C 4.399875 7.9581094 4.6517344 7.7249375 4.9277344 7.4609375 C 5.2097344 7.1909375 5.4858594 6.9203906 5.7558594 6.6503906 C 6.0318594 6.3803906 6.2892969 6.1229531 6.5292969 5.8769531 C 6.7692969 5.6309531 6.9614688 5.4238594 7.1054688 5.2558594 L 7.84375 5.2558594 C 7.66975 5.4418594 7.4608437 5.663875 7.2148438 5.921875 C 6.9688437 6.173875 6.7076406 6.433125 6.4316406 6.703125 C 6.1556406 6.973125 5.8795156 7.2418594 5.6035156 7.5058594 C 5.3335156 7.7638594 5.091 7.9914531 4.875 8.1894531 C 5.049 8.2974531 5.2336406 8.43175 5.4316406 8.59375 C 5.6356406 8.74975 5.8409219 8.9232344 6.0449219 9.1152344 C 6.2549219 9.3012344 6.45825 9.5009375 6.65625 9.7109375 C 6.86025 9.9149378 7.0486562 10.120078 7.2226562 10.330078 C 7.4026563 10.540078 7.5631719 10.745359 7.7011719 10.943359 C 7.8451719 11.141359 7.9607813 11.324188 8.0507812 11.492188 L 7.3671875 11.492188 C 7.1631875 11.180188 6.9318281 10.870453 6.6738281 10.564453 C 6.4218281 10.258453 6.1550469 9.9711721 5.8730469 9.7011719 C 5.5910469 9.4311719 5.3037656 9.1848906 5.0097656 8.9628906 C 4.7217656 8.7408906 4.441875 8.5542969 4.171875 8.4042969 L 4.171875 11.492188 L 3.5605469 11.492188 L 3.5605469 5.2558594 z "
     id="path4" />
</svg>

<svg xmlns="http://www.w3.org/2000/svg" viewBox="0 0 16 16">
 <path d="m 1.6 0 c -0.886 0 -1.6 0.713 -1.6 1.6 l 0 12.801 c 0 0.886 0.713 1.6 1.6 1.6 l 12.801 0 c 0.886 0 1.6 -0.713 1.6 -1.6 l 0 -12.801 c 0 -0.886 -0.713 -1.6 -1.6 -1.6 l -12.801 0 z m 7.906 4.508 l 0 4.428 c 0.15 -0.144 0.318 -0.308 0.504 -0.494 c 0.186 -0.186 0.373 -0.376 0.559 -0.568 c 0.192 -0.192 0.371 -0.377 0.539 -0.557 c 0.168 -0.18 0.312 -0.339 0.432 -0.477 l 0.703 0 c -0.138 0.144 -0.295 0.304 -0.469 0.484 c -0.174 0.18 -0.357 0.37 -0.549 0.568 c -0.186 0.192 -0.373 0.38 -0.559 0.566 l -0.504 0.504 c 0.186 0.126 0.384 0.288 0.594 0.486 c 0.216 0.198 0.427 0.414 0.631 0.648 c 0.21 0.228 0.406 0.465 0.586 0.711 c 0.186 0.24 0.341 0.468 0.467 0.684 l -0.693 0 c -0.144 -0.24 -0.308 -0.475 -0.494 -0.703 c -0.18 -0.234 -0.372 -0.452 -0.576 -0.656 c -0.198 -0.204 -0.4 -0.391 -0.604 -0.559 c -0.198 -0.168 -0.386 -0.308 -0.566 -0.422 l 0 2.34 l -0.586 0 l 0 -6.877 l 0.586 -0.107 z m -5.945 0.748 l 0.611 0 l 0 2.906 c 0.228 -0.204 0.48 -0.437 0.756 -0.701 c 0.282 -0.27 0.558 -0.541 0.828 -0.811 c 0.276 -0.27 0.533 -0.527 0.773 -0.773 c 0.24 -0.246 0.432 -0.453 0.576 -0.621 l 0.738 0 c -0.174 0.186 -0.383 0.408 -0.629 0.666 c -0.246 0.252 -0.507 0.511 -0.783 0.781 c -0.276 0.27 -0.552 0.539 -0.828 0.803 c -0.27 0.258 -0.513 0.486 -0.729 0.684 c 0.174 0.108 0.359 0.242 0.557 0.404 c 0.204 0.156 0.409 0.329 0.613 0.521 c 0.21 0.186 0.413 0.386 0.611 0.596 c 0.204 0.204 0.392 0.409 0.566 0.619 c 0.18 0.21 0.341 0.415 0.479 0.613 c 0.144 0.198 0.26 0.381 0.35 0.549 l -0.684 0 c -0.204 -0.312 -0.435 -0.622 -0.693 -0.928 c -0.252 -0.306 -0.519 -0.593 -0.801 -0.863 c -0.282 -0.27 -0.569 -0.516 -0.863 -0.738 c -0.288 -0.222 -0.568 -0.409 -0.838 -0.559 l 0 3.088 l -0.611 0 l 0 -6.236 z" style="fill:#353535;fill-opacity:1"/>
</svg>
